-----BEGIN PGP SIGNATURE-----

wsFzBAABCgAdBQJpQtEtFiEEFErtCle+fUroNdnYysWsT3QWSxcACgkQysWsT3QW
Sxetfw//Z84+m3u74u98YftV6HOT6euMops274C3KF+375knWnErH08hrd5Oq5PC
xot/iVogQd6jhVvkhhKKU25dEeLYnpyCrzlyZavPX8UJeVgFaZbYC+krCzmkfb3F
nSYp/IKgZ1Ee3rA7JAyR4UNX0Afx7zKbwqJ3M71OIzDU5pxr+53AjP0UmQomTtEo
zQ3EKzzjLQPADpCdI9eZhYMuZ5cd4dLafVyDq6BrdlyxROY3Mf7zk7obx7vYxgQJ
FGB7KOMxbOxL6Q5w8vdvgSXOodjtD+uB4nQiI2DB7BSktluzPW3ESrGPJjZhby5p
42ZaqVFyFxvcrarRMIFLDQxbDO2H5P98Ev66PetpWKYNDVO4Q9pU7hwxtiC03Sh/
4vN6+frNNMuA56r4gLHMxCd6fP6bbr2Cq9A9B/PXgSL9IWUWz4U3BH8YmdJAcG1N
z4lw9PbxbzSw37tXRcGzXfddsvFbIrTBHge0YoWNOKkdg5+TZVzhB4FbUkGIrWWn
KMCFp3B/OwW14uDekPg0YeOqHTu2jb5g/FnUi6YYhk1/OsC0V4Vw9dfbZhPh2NYH
7h3XfUUDBk4LYVuA5+WDU+aY/947rD6SNubN4L/NLiI6gnBDU6M8Zn/MgxdPUOZL
gedRJWNXPMJfRtuCiOu6toCHlNbKh7X5NFa0WpgMb1KYFoCwAj8=
=7yNZ
-----END PGP SIGNATURE-----
