-----BEGIN PGP SIGNATURE-----

iQIzBAABCAAdFiEEFErtCle+fUroNdnYysWsT3QWSxcFAmp9/lMACgkQysWsT3QW
Sxdulg//XP+3cO7kb/0stEBlC4h/Xofdjn0mYRZJp0nXSJhIYKimqu1AnYS811p1
6VPObWtHmAGbXC8NN1Zc2gvGVRxF+QGjIWtM4wAYrMUn6GyINpaOkK+KcyZMue9T
l+bpP9uwxu6bXIvGvfdV7A2P8B0u/DjJAh+ink1gixonsgAW6+8ALjkCW4UR1QQI
GXNQWFzYVvRQ5cgBYdJI0wCr3oaiWUkzhVAG31nRNVvtotw9LNZ4rzVT8mHQZc7L
0JRm73aBltfWqU+JZPv/vbQzODB6f+aVHBB5h+CasYZdUCIMbZmXuRxQLfVG0nDk
NTmK29CbjNX+Jbxu7Zdbe+CNooZ8r3lqp7m18EJNnYDn+ScwlefsJxPMuzFQw5xQ
ZeF/qMw02JYUk9WcY+mUhcEG9gMWwCeXnr3LeiGS7ejXSSfhGe9SNRrP6tNnjAI2
rbwj9wBM+PnfyEPdSK0TQAxe1EKct65WD2pvjl95gCFPotJAGVPN+eF1UT5sZs7Y
hn4JeeHeEddn03SHVEXX3PMg9z6SLw+Noy24U1jEHQEOgpV+UcgYe6UMl/xae1wJ
WSE9w5iZyQqf0ILzKI8/zZw472ybAzuh6EgeDEnv4qosFEJz7hxi+87bzBkeDHXX
tuVjWFhpdbOC2UEi5/GAcr14U7dvh8rFIdsmv6L79F7E8rT6Ux0=
=ZOea
-----END PGP SIGNATURE-----
