-----BEGIN PGP SIGNATURE-----

iQIzBAABCAAdFiEEFErtCle+fUroNdnYysWsT3QWSxcFAmpFZAYACgkQysWsT3QW
SxdsdhAAlFOAzgFVAn1ACpii8FBPBPsaLpRX1Dj8Pn9kCISA8Ib27wNHDi28dwvZ
XFvc9HNg9Wq+ZoAnTFcqtBWlvsDoOrldoKRCJIpYVi26MbdjdN9cLFdytPmNM1b4
foyTYrLuYITvBmHAf+5Ofk35/mwmPJ38Uu6s2ty5rKnjUqGfi8WISsr5gawr9p16
V/4RRdmJAEY+/eM/J8/jftD1eOBVQrp6OFaCUfmj0BIqCp+wMbLIv8uNgi2IY6Fj
3io63m55WdJ6DFK8wiay7BzDlOATlrNM2bdDmlm27K05XtJCZCg01AgJjnHZFTNx
ZF/3vypzqegY/HqtoUxF8z5mH9RvSPu0FbJ7dfEHv8D7QyIdrRu96BXjUDb/SENw
/NniX4og88jqb7l2Kkh7fnZfh+j1tFUBw1lSqRr8WBBTPboIebPbsrwZ6ahhUpPi
cpahAQXGeuOUP7W9a2sW7gt3jS0VMN2/oKIawgR8gsFIhFJPVSR6A0mm4klalCXL
EdoTaV0tYYEvtd8aeuiLJXJM2qjsfpkgkcBLN1XXncS2PZtLvYV/X+0GzNfOdcBI
12kXZtHF5hekKoLCFS0lZzhu9ChfC6Je62bXpMo0fryMYN0CYKY6U8Dtxtk7dCrC
nUwOoFQjqmOnLQWrmSqhJL+s9c2niwMMM/dIuCWJBlsxmUadSWI=
=833b
-----END PGP SIGNATURE-----
