-----BEGIN PGP SIGNATURE-----

iQJOBAABCAA5FiEEFErtCle+fUroNdnYysWsT3QWSxcFAmq1fJkbFIAAAAAABAAO
bWFudTIsMi41KzEuMTEsMiwxAAoJEMrFrE90FksX2XYP+PdhE8jvqqoI3lrOF3xS
Bh82Yk1iWGqNhPLU0nQ7ZTH/r4d9mBHdvYhWe1yNJd+V1GJXB0ph5a3+gmCna7TQ
i8AWkSS/RwYJuaNcr7g3hj2Nh69w+kbicFo8EXd4WH6nSoqTdBpZkknH0jivE8GZ
mfCW2cfEfDJMBjUdSifFtDFRT68XpsdvLLJZ7ILfIgNHD7vdUc2zT1r66B9a8o9f
mOgGvX/IMRHlee+3B9WMoRCncM9KxR+diG/UYV5Tm5+R7ZNKfvJ6hgjaKnaIncti
EBhZDrsiINwMmwthLNxe7vkix7T3yc1oKbS22AedS6KQIYfG5OLYA7WhXVRJAvVZ
9p8ZciR8ESd4KB1Xj/s4SRWOtrXeZtBLjTAQa/Ai54KB/nJTIDXnxPmaxgojcBLC
S/crlfKywFELmmfhyAunrYjwLIxPAghn//80kO6IhQ/3KQJsdPS0YW6jgxLVHiuo
TOyVtj2xo1H1joBk1bMBFWxbxKzRessHQa8rE8eI/WzOyOuvQmwq9aUpdK2UZzlF
pNwYqKl4ryBvNDK811p5ZfbMvIlCi+UmL54WxhKYSCWv5yzNsyNf287mN0XUZ0w4
AN2jRVcAOuZy88aSXjXfR1IxZkuEDo9eJ7wBffN5GMTyif42Fhm8nv6MheAM4dwy
lWoUByjaCYBnLVYy54OwiuY=
=BiMP
-----END PGP SIGNATURE-----
