-----BEGIN PGP SIGNATURE-----

iQIzBAABCAAdFiEEFErtCle+fUroNdnYysWsT3QWSxcFAmpiWOQACgkQysWsT3QW
SxdiQBAAjowWhMOq7O161BOVJ39dvHAkDCtsLj+ht9y26fGi4M6gxMsssYOzq+t3
KPwqfewoX4lWB8rAcGpRenlD/j+aB97+6BSIyHVBPxjBFjiHpeiKl7fwl6zj2a6t
iT6LmLWxuy3KJW0kbQOLWTKtM+jyZ6cBw9Q9UEeU14RQ042sGKzOycdJgjRGeNAT
HRtzFY85vRJtn+qfmF7H6ooNH61ox98ehlLlFXcQ09b0+XPJDwg8cq1JUfod7UzY
gneMLLUflyVt7zoF5YOUSFIOnyi/mC0YtqM/sIRAK+WNkNjk49RN3n9GukGci+eq
p5pFZtWvlRd/+4wNdgwOt80aiEk3ElpahBANJsNs9tBew1dysjNGd4dVmZl2BAs/
35N7AX5E05qIqItbaiaJz20zI18iSJtLcRiH9aYcIDT/2wNISv5WxTMAz06pRTbv
v+0T224AQN6OfCqjcV9M8cLRmV/9iQ8Qf2hhawgqA5ZJd1JprXcT/JrMBwob1Yla
4l623FVfpP9njPqdIQepVnsfrShdP0B2KNqCEF96SeXg6hmsW2L7Tows1Q+tyDm1
GwE42eIroglXeQ2AsZgPVzHtj5m23Bdwx57SGnXqpIwAB9ELg9XHJfGBao2pmSsb
Qt0gi2BrSeaE2heLna2JJsBXPms14xFT+8c/gPXZrsoga2se3n0=
=Tkqk
-----END PGP SIGNATURE-----
