-----BEGIN PGP SIGNATURE-----

iQIzBAABCAAdFiEEFErtCle+fUroNdnYysWsT3QWSxcFAmq+jv8ACgkQysWsT3QW
SxdqeQ//ZQKqGcGeFx6d4awYBFeSARnvg+2i2dBS4fm4HIoZEccBjfxoGbqLF1Gf
6wqCiTtccdGah6bRYeG34+5EzlcHPXaD6QzW7HkOI2hIfSaV96JWzO46pY25DqHk
qhsQ3SydNxFFkU2RFdDrVsyi2d9RKKIj3Jz6yoZSpiq8vre0MAXyT4MXpmA0PUmY
pCCpJWbAf39uF4VCUqavKAxQdfZT4+f43paUr8vR54C35YBcHg2TcUnChFOT4FxQ
b97xC5s0C1AdQnyy21Fo77rdnPg8Y4RMYBxBXT1dPSS0s9ySqn0JORo881Jflc9/
doNtPpzdiSGVrJC8zIIC513HO/b7VDPVRSMVhJnCPt1LxcsdTiqg8xQX6HW5Oc9s
XASMeNaVPSR0FD7MhrLgjsI3mvFku4yj12risNa44A7FZgDiHytBuJ96rnmuD7iC
5Qv8QpuiAidkWGCt5g7N78fw7sa6tndHY2Z/xY2TH3ZyZyL5UIrYb5XBeDJfMeOY
ndl32bdZet3uC76WJzeNB/Mz9TigQdV8jbJS5r0QXYR5cQ13Wj1c/E+beF6tpxkP
kwtnY7Rpr3GNgrhwN3x4sTaeGZ9G6XvXjM6Hm9WfHDIeDj2SwULrAVPDij2z0dmn
2hrKlHT/EDsXj5qsHZyO+92V8N+HKqwOgFr0ebSpK9AulS/0GcQ=
=DDVq
-----END PGP SIGNATURE-----
