-----BEGIN PGP SIGNATURE-----

iQJPBAABCAA5FiEEFErtCle+fUroNdnYysWsT3QWSxcFAmpr1wUbFIAAAAAABAAO
bWFudTIsMi41KzEuMTIsMCwzAAoJEMrFrE90FksXtWcQAIN/X7Ki5Hk+810t/JEI
a9HZTtDbvtpXFOj6uMr1Y2mMmDaUO1wRjF7UNZrftfrL0CLeAtGe2t5s41DFJw21
NuqOXDsLJnTeupNlf0yzAi3ODpzDjCKuGbfAFcniM+BBbpVBjrDjLIS0IP5Td8gr
RXALoyAQNLxkD4TrbsCd6iROm6MFXfdfPjUV+mNa7bubukAQAI73BHirBpzNBqz3
+AFROjKReRBh04GZY8wfGhIXj6XPmZCVa01DnWi6beBg5luGYbC/Sl7KeyAqwaKd
/+sFa6Drwl5WyfXaJA1kvEXPWWhoB2E+srI9p3AVAzRjKjyFSEc65UrSRm8ij6q+
xgTc5uG218A/zKLINGQ/UPyOP/9es8Acpy3FGKbpdp0gc/pcppsFFKvjoUoYkf5I
Cadq3Rxi4C2Dzd5HAgxCl9JTPE7d2wFH0atiukEHhk/Var+AtrZV0xtlu/dcH3rI
p3HIcBRvg5RJcOKN3I10WusCGasiDaCHjmxWfSQS3Pfz6mKmJ5+vgfrh05WiW4hZ
MmMUBOTM1Qw14YEhzCh5Z13aGvFi0+Yb27NJa8r1F8ljLIEkNYhWNj248krYDWHw
oYQXYKHHrINDA34bzLWn5IxvPzkdwu0iYLuuDh5stbJFcu4Bb7D0fpXC0QquKDef
uXOIFhy4GNjWWA4xMWyOPIYF
=d0AH
-----END PGP SIGNATURE-----
